packages/illustrations/src/drop-files-in.svg

<svg width="124" height="124" viewBox="0 0 124 124" fill="none" xmlns="http://www.w3.org/2000/svg">
<circle opacity="0.5" cx="61.5" cy="67.5" r="42.8776" fill="#EBEEF1" stroke="#B7C2CE" stroke-width="1.2449"/>
<path d="M28.6224 52C28.6224 50.1346 30.1346 48.6224 32 48.6224H49.3967C50.8252 48.6224 52.1638 49.3194 52.983 50.4896L53.4972 51.2243C54.5493 52.7273 56.2686 53.6224 58.1033 53.6224H91.5825C93.4204 53.6224 94.921 55.0921 94.9593 56.9296L95.3644 76.3776H28.6224V52Z" fill="#EBEEF1" stroke="#B7C2CE" stroke-width="1.2449"/>
<path d="M53.9257 59.2841L28.2886 72.8347C28.104 72.9323 27.8752 72.8614 27.778 72.6766L10.0899 39.0402C9.99297 38.8559 10.0635 38.628 10.2476 38.5307L27.4611 29.4324C28.1975 29.0432 29.0517 28.9398 29.8597 29.1421L38.2649 31.2463C39.1952 31.4792 39.9826 32.0966 40.4308 32.9444L54.083 58.7739C54.1805 58.9582 54.11 59.1867 53.9257 59.2841Z" fill="white" stroke="#B7C2CE" stroke-width="1.2449" stroke-linejoin="round"/>
<path d="M31.3102 35.7361L27.8454 29.0298C27.7662 28.8764 27.9055 28.7014 28.0728 28.7443L40.1129 31.8314C40.2901 31.8768 40.3184 32.1165 40.1567 32.2019L32.6659 36.1612C32.1744 36.421 31.5653 36.23 31.3102 35.7361Z" fill="#B7C2CE"/>
<rect x="14.4072" y="40.1565" width="14" height="1" rx="0.5" transform="rotate(-27.8589 14.4072 40.1565)" fill="#B7C2CE"/>
<rect x="15.8074" y="42.8057" width="8" height="1" rx="0.5" transform="rotate(-27.8589 15.8074 42.8057)" fill="#B7C2CE"/>
<g clip-path="url(#clip0_1377_37168)">
<path d="M39.3325 42.6381C38.7095 41.968 37.7681 41.6777 36.8758 41.8802C35.2426 42.244 29.5348 45.2608 29.5348 45.2608C29.5348 45.2608 23.8272 48.2776 22.5989 49.4074C21.9439 50.0224 21.6464 50.9868 21.8492 51.879C22.2278 53.5043 23.7918 56.4633 23.7918 56.4633C23.7918 56.4633 25.3637 59.4372 26.4854 60.6506C27.1086 61.3205 28.0498 61.6109 28.9421 61.4083C30.5904 61.0368 36.2831 58.0278 36.2831 58.0278C36.2831 58.0278 41.9907 55.0111 43.2191 53.8813C43.8891 53.2581 44.1794 52.3169 43.9769 51.4246C43.5981 49.7993 42.0342 46.8404 42.0342 46.8404C42.0342 46.8404 40.4773 43.8584 39.3325 42.6381ZM32.5365 55.3385L29.6468 49.8713L35.8379 50.0962L32.5365 55.3385Z" fill="#B7C2CE"/>
</g>
<path d="M77.9458 62.876L49.0511 60.4324C48.843 60.4148 48.6887 60.2316 48.7068 60.0236L51.989 22.162C52.007 21.9545 52.1895 21.8008 52.397 21.8184L71.7978 23.4591C72.6277 23.5292 73.4025 23.9036 73.9732 24.5103L79.9103 30.8211C80.5674 31.5196 80.8966 32.4645 80.8158 33.42L78.3539 62.5316C78.3363 62.7394 78.1536 62.8936 77.9458 62.876Z" fill="white" stroke="#B7C2CE" stroke-width="1.2449" stroke-linejoin="round"/>
<path d="M71.6321 30.8431L72.3386 23.3278C72.3548 23.1559 72.5666 23.0839 72.6842 23.2103L81.1495 32.3117C81.274 32.4456 81.1684 32.6626 80.9862 32.6472L72.5435 31.9332C71.9895 31.8863 71.5801 31.3966 71.6321 30.8431Z" fill="#B7C2CE"/>
<rect x="55.0195" y="25.4333" width="14" height="1" rx="0.5" transform="rotate(4.83392 55.0195 25.4333)" fill="#B7C2CE"/>
<rect x="54.7666" y="28.4226" width="14" height="1" rx="0.5" transform="rotate(4.83392 54.7666 28.4226)" fill="#B7C2CE"/>
<rect x="52.5757" y="54.3302" width="14" height="1" rx="0.5" transform="rotate(4.83392 52.5757 54.3302)" fill="#B7C2CE"/>
<rect x="54.5139" y="31.412" width="12.019" height="1" rx="0.5" transform="rotate(4.83392 54.5139 31.412)" fill="#B7C2CE"/>
<rect x="52.323" y="57.3195" width="24" height="1" rx="0.5" transform="rotate(4.83392 52.323 57.3195)" fill="#B7C2CE"/>
<rect x="54.0925" y="36.3942" width="24" height="16" rx="1" transform="rotate(4.83392 54.0925 36.3942)" fill="#EBEEF1"/>
<circle cx="59.734" cy="40.8855" r="2" transform="rotate(4.83392 59.734 40.8855)" fill="#B7C2CE"/>
<path d="M59.972 45.3826L55.6559 49.7534C55.358 50.055 55.5471 50.5672 55.9695 50.6029L63.8065 51.2657C64.2289 51.3014 64.5013 50.8282 64.2583 50.4809L60.7375 45.4473C60.5585 45.1914 60.1914 45.1604 59.972 45.3826Z" fill="#B7C2CE"/>
<path d="M67.6391 43.9517L60.7454 50.1619C60.4201 50.4548 60.6017 50.9947 61.0379 51.0316L73.6845 52.1011C74.1207 52.138 74.3903 51.6363 74.1189 51.2928L68.366 44.0132C68.1869 43.7866 67.8537 43.7584 67.6391 43.9517Z" fill="white"/>
<path d="M91.3628 73.6899L70.1723 56.9614C70.0083 56.832 69.9806 56.5941 70.1104 56.4304L92.4817 28.2208C92.6111 28.0576 92.8481 28.03 93.0115 28.159L106.724 38.984C107.378 39.5001 107.818 40.2395 107.959 41.0603L109.434 49.5985C109.597 50.5435 109.351 51.5133 108.756 52.2661L91.893 73.6275C91.7638 73.7911 91.5264 73.8191 91.3628 73.6899Z" fill="white" stroke="#B7C2CE" stroke-width="1.2449" stroke-linejoin="round"/>
<path d="M102.515 45.0533L107.247 39.1726C107.356 39.038 107.572 39.0947 107.6 39.2651L109.646 51.5252C109.676 51.7056 109.468 51.8284 109.325 51.7151L102.674 46.4652C102.238 46.1207 102.166 45.4864 102.515 45.0533Z" fill="#B7C2CE"/>
<rect x="93.209" y="32.618" width="12" height="1" rx="0.5" transform="rotate(38.2887 93.209 32.618)" fill="#B7C2CE"/>
<rect x="91.3501" y="34.9728" width="5" height="1" rx="0.5" transform="rotate(38.2887 91.3501 34.9728)" fill="#B7C2CE"/>
<path fill-rule="evenodd" clip-rule="evenodd" d="M86.517 42.3053L85.0454 44.1695L89.6567 47.8098L91.1283 45.9456L86.517 42.3053ZM84.5807 44.7582L89.192 48.3985L87.7978 50.1645L83.1865 46.5242L84.5807 44.7582ZM89.7806 48.8632L88.3865 50.6292L93.2921 54.5018L94.6863 52.7358L89.7806 48.8632ZM95.2749 53.2005L93.8808 54.9666L98.4921 58.6068L99.8862 56.8408L95.2749 53.2005ZM92.8274 55.0905L87.9218 51.2179L86.5276 52.9839L91.4332 56.8565L92.8274 55.0905ZM92.0219 57.3213L93.4161 55.5552L98.0273 59.1955L96.6332 60.9616L92.0219 57.3213ZM90.9685 57.4452L86.0629 53.5726L84.6687 55.3386L89.5744 59.2112L90.9685 57.4452ZM90.163 59.676L91.5572 57.9099L96.1685 61.5502L94.7743 63.3162L90.163 59.676ZM89.1096 59.7999L84.204 55.9273L82.7324 57.7914L87.638 61.664L89.1096 59.7999ZM88.2267 62.1288L89.6983 60.2646L94.3096 63.9049L92.838 65.769L88.2267 62.1288ZM95.7397 52.6119L97.2113 50.7477L101.823 54.388L100.351 56.2522L95.7397 52.6119ZM96.6226 50.283L95.151 52.1471L90.2454 48.2745L91.717 46.4104L96.6226 50.283ZM97.676 50.1591L102.483 53.9543C102.7 54.1254 102.737 54.4398 102.566 54.6565L100.94 56.7169L100.475 57.3055L99.0807 59.0716L98.616 59.6602L97.2219 61.4263L96.7571 62.0149L95.363 63.781L94.8983 64.3696L93.2718 66.43C93.1007 66.6467 92.7862 66.6837 92.5695 66.5126L87.762 62.7174L87.1733 62.2527L82.2677 58.3801L81.679 57.9153L76.8715 54.1201C76.6548 53.949 76.6178 53.6346 76.7889 53.4179L80.2743 49.0028L80.739 48.4142L82.1331 46.6481L82.5979 46.0595L83.992 44.2934L84.4567 43.7048L86.0833 41.6444C86.2544 41.4277 86.5688 41.3907 86.7855 41.5618L97.0873 49.6943L97.676 50.1591ZM82.7218 47.1129L87.3331 50.7531L85.9389 52.5192L81.3277 48.8789L82.7218 47.1129ZM80.8629 49.4675L85.4742 53.1078L84.0801 54.8739L79.4688 51.2336L80.8629 49.4675ZM79.0041 51.8222L83.6154 55.4625L82.1437 57.3267L77.5325 53.6864L79.0041 51.8222Z" fill="#B7C2CE"/>
<path d="M24.8775 68.2133C24.7556 65.7149 26.7484 63.6224 29.2498 63.6224H57.4499C59.7041 63.6224 61.7516 62.3086 62.6908 60.2593C63.4273 58.6526 65.0326 57.6224 66.8001 57.6224H93.8262C95.7479 57.6224 97.2824 59.2236 97.2007 61.1436L95.6226 98.2286C95.5001 101.107 93.1309 103.378 90.2499 103.378H31.7145C28.8464 103.378 26.483 101.127 26.3433 98.262L24.8775 68.2133Z" fill="white" stroke="#B7C2CE" stroke-width="1.2449"/>
<circle cx="62.5" cy="95.5" r="14.8776" fill="#DDE2E8" stroke="#778DA8" stroke-width="1.2449"/>
<mask id="path-26-outside-1_1377_37168" maskUnits="userSpaceOnUse" x="54" y="87" width="17" height="17" fill="black">
<rect fill="white" x="54" y="87" width="17" height="17"/>
<path fill-rule="evenodd" clip-rule="evenodd" d="M64 90.5C64 89.6716 63.3284 89 62.5 89C61.6716 89 61 89.6716 61 90.5V94H57.5C56.6716 94 56 94.6716 56 95.5C56 96.3284 56.6716 97 57.5 97H61V100.5C61 101.328 61.6716 102 62.5 102C63.3284 102 64 101.328 64 100.5V97H67.5C68.3284 97 69 96.3284 69 95.5C69 94.6716 68.3284 94 67.5 94H64V90.5Z"/>
</mask>
<path fill-rule="evenodd" clip-rule="evenodd" d="M64 90.5C64 89.6716 63.3284 89 62.5 89C61.6716 89 61 89.6716 61 90.5V94H57.5C56.6716 94 56 94.6716 56 95.5C56 96.3284 56.6716 97 57.5 97H61V100.5C61 101.328 61.6716 102 62.5 102C63.3284 102 64 101.328 64 100.5V97H67.5C68.3284 97 69 96.3284 69 95.5C69 94.6716 68.3284 94 67.5 94H64V90.5Z" fill="white"/>
<path d="M61 94V95.2449H62.2449V94H61ZM61 97H62.2449V95.7551H61V97ZM64 97V95.7551H62.7551V97H64ZM64 94H62.7551V95.2449H64V94ZM62.5 90.2449C62.6409 90.2449 62.7551 90.3591 62.7551 90.5H65.2449C65.2449 88.984 64.016 87.7551 62.5 87.7551V90.2449ZM62.2449 90.5C62.2449 90.3591 62.3591 90.2449 62.5 90.2449V87.7551C60.984 87.7551 59.7551 88.984 59.7551 90.5H62.2449ZM62.2449 94V90.5H59.7551V94H62.2449ZM57.5 95.2449H61V92.7551H57.5V95.2449ZM57.2449 95.5C57.2449 95.3591 57.3591 95.2449 57.5 95.2449V92.7551C55.984 92.7551 54.7551 93.984 54.7551 95.5H57.2449ZM57.5 95.7551C57.3591 95.7551 57.2449 95.6409 57.2449 95.5H54.7551C54.7551 97.016 55.984 98.2449 57.5 98.2449V95.7551ZM61 95.7551H57.5V98.2449H61V95.7551ZM62.2449 100.5V97H59.7551V100.5H62.2449ZM62.5 100.755C62.3591 100.755 62.2449 100.641 62.2449 100.5H59.7551C59.7551 102.016 60.984 103.245 62.5 103.245V100.755ZM62.7551 100.5C62.7551 100.641 62.6409 100.755 62.5 100.755V103.245C64.016 103.245 65.2449 102.016 65.2449 100.5H62.7551ZM62.7551 97V100.5H65.2449V97H62.7551ZM67.5 95.7551H64V98.2449H67.5V95.7551ZM67.7551 95.5C67.7551 95.6409 67.6409 95.7551 67.5 95.7551V98.2449C69.016 98.2449 70.2449 97.016 70.2449 95.5H67.7551ZM67.5 95.2449C67.6409 95.2449 67.7551 95.3591 67.7551 95.5H70.2449C70.2449 93.984 69.016 92.7551 67.5 92.7551V95.2449ZM64 95.2449H67.5V92.7551H64V95.2449ZM62.7551 90.5V94H65.2449V90.5H62.7551Z" fill="#778DA8" mask="url(#path-26-outside-1_1377_37168)"/>
<defs>
<clipPath id="clip0_1377_37168">
<rect width="22" height="22" fill="white" transform="translate(18.144 47.2261) rotate(-27.8589)"/>
</clipPath>
</defs>
</svg>

<svg width="124" height="124" fill="none" xmlns="http://www.w3.org/2000/svg">
  <circle cx="61.5" cy="67.5" r="42.9" fill="#EBEEF1" stroke="#B7C2CE" stroke-width="1.2" opacity=".5"/>
  <path fill="#EBEEF1" stroke="#B7C2CE" stroke-width="1.2" d="M28.6 52c0-1.9 1.5-3.4 3.4-3.4h17.4c1.4 0 2.8.7 3.6 1.9l.5.7c1 1.5 2.8 2.4 4.6 2.4h33.5c1.8 0 3.3 1.5 3.4 3.3l.4 19.5H28.6V52Z"/>
  <path fill="#fff" stroke="#B7C2CE" stroke-linejoin="round" stroke-width="1.2" d="M54 59.3 28.2 72.8c-.2.1-.4 0-.5-.1L10 39c-.1-.1 0-.4.1-.5l17.3-9a3 3 0 0 1 2.4-.4l8.4 2.1c.9.3 1.7.9 2.1 1.7L54 58.8c0 .2 0 .4-.2.5Z"/>
  <path fill="#B7C2CE" d="M31.3 35.7 27.8 29c0-.1.1-.3.3-.3l12 3.1c.2 0 .2.3 0 .4l-7.4 4a1 1 0 0 1-1.4-.5Z"/>
  <rect width="14" height="1" x="14.4" y="40.2" fill="#B7C2CE" rx=".5" transform="rotate(-27.9 14.4 40.2)"/>
  <rect width="8" height="1" x="15.8" y="42.8" fill="#B7C2CE" rx=".5" transform="rotate(-27.9 15.8 42.8)"/>
  <g clip-path="url(#a)">
    <path fill="#B7C2CE" d="M39.3 42.6c-.6-.6-1.5-1-2.4-.7-1.7.3-7.4 3.4-7.4 3.4s-5.7 3-6.9 4.1c-.7.6-1 1.6-.8 2.5a27.1 27.1 0 0 0 4.6 8.8c.7.6 1.6 1 2.5.7 1.7-.4 7.4-3.4 7.4-3.4s5.7-3 7-4.1c.6-.6.9-1.6.7-2.5-.4-1.6-2-4.6-2-4.6s-1.5-3-2.7-4.2Zm-6.8 12.7L29.6 50l6.2.2-3.3 5.2Z"/>
  </g>
  <path fill="#fff" stroke="#B7C2CE" stroke-linejoin="round" stroke-width="1.2" d="m78 62.9-29-2.5a.4.4 0 0 1-.3-.4L52 22.2c0-.2.2-.4.4-.4l19.4 1.7c.8 0 1.6.4 2.2 1l6 6.3c.6.7.9 1.7.8 2.6l-2.4 29.1c0 .2-.2.4-.5.4Z"/>
  <path fill="#B7C2CE" d="m71.6 30.8.7-7.5c0-.1.3-.2.4 0l8.4 9c.2.1 0 .4-.1.3l-8.5-.7a1 1 0 0 1-.9-1Z"/>
  <rect width="14" height="1" x="55" y="25.4" fill="#B7C2CE" rx=".5" transform="rotate(4.8 55 25.4)"/>
  <rect width="14" height="1" x="54.8" y="28.4" fill="#B7C2CE" rx=".5" transform="rotate(4.8 54.8 28.4)"/>
  <rect width="14" height="1" x="52.6" y="54.3" fill="#B7C2CE" rx=".5" transform="rotate(4.8 52.6 54.3)"/>
  <rect width="12" height="1" x="54.5" y="31.4" fill="#B7C2CE" rx=".5" transform="rotate(4.8 54.5 31.4)"/>
  <rect width="24" height="1" x="52.3" y="57.3" fill="#B7C2CE" rx=".5" transform="rotate(4.8 52.3 57.3)"/>
  <rect width="24" height="16" x="54.1" y="36.4" fill="#EBEEF1" rx="1" transform="rotate(4.8 54 36.4)"/>
  <circle cx="59.7" cy="40.9" r="2" fill="#B7C2CE" transform="rotate(4.8 59.7 40.9)"/>
  <path fill="#B7C2CE" d="m60 45.4-4.3 4.4c-.3.3-.2.8.3.8l7.8.7c.4 0 .7-.5.5-.8l-3.6-5a.5.5 0 0 0-.7-.1Z"/>
  <path fill="#fff" d="m67.6 44-6.9 6.2c-.3.3-.1.8.3.8l12.7 1.1c.4 0 .7-.5.4-.8L68.4 44a.5.5 0 0 0-.8 0Z"/>
  <path fill="#fff" stroke="#B7C2CE" stroke-linejoin="round" stroke-width="1.2" d="M91.4 73.7 70.2 57a.4.4 0 0 1 0-.6l22.3-28.2c.1-.1.3-.2.5 0L106.7 39c.7.5 1.1 1.2 1.3 2l1.4 8.6c.2 1 0 2-.6 2.7l-17 21.3c0 .2-.3.2-.4 0Z"/>
  <path fill="#B7C2CE" d="m102.5 45 4.7-5.8c.2-.2.4-.1.4 0l2 12.3c0 .2-.1.3-.3.2l-6.6-5.2a1 1 0 0 1-.2-1.4Z"/>
  <rect width="12" height="1" x="93.2" y="32.6" fill="#B7C2CE" rx=".5" transform="rotate(38.3 93.2 32.6)"/>
  <rect width="5" height="1" x="91.4" y="35" fill="#B7C2CE" rx=".5" transform="rotate(38.3 91.4 35)"/>
  <path fill="#B7C2CE" fill-rule="evenodd" d="M86.5 42.3 85 44.2l4.7 3.6L91 46l-4.6-3.6Zm-2 2.5 4.7 3.6-1.4 1.8-4.6-3.7 1.4-1.7Zm5.3 4-1.4 1.8 4.9 3.9 1.4-1.8-5-3.8Zm5.5 4.4L93.9 55l4.6 3.6 1.4-1.8-4.6-3.6Zm-2.5 1.9L88 51.2 86.5 53l5 3.9 1.3-1.8Zm-.8 2.2 1.4-1.7 4.6 3.6-1.4 1.8-4.6-3.7Zm-1 .1-5-3.8-1.3 1.7 4.9 4 1.4-1.9Zm-.8 2.3 1.4-1.8 4.6 3.7-1.4 1.7-4.6-3.6Zm-1 .1-5-3.9-1.5 1.9 5 3.9 1.4-1.9Zm-1 2.3 1.5-1.8 4.6 3.6-1.5 1.9-4.6-3.7Zm7.5-9.5 1.5-1.9 4.6 3.7-1.4 1.9-4.7-3.7Zm1-2.3L95.1 52l-5-3.8 1.5-1.9 5 3.9Zm1-.1 4.8 3.8c.2.1.2.4 0 .7l-1.6 2-.4.6-1.4 1.8-.5.6-1.4 1.7-.4.6-1.4 1.8-.5.6-1.6 2c-.2.2-.5.3-.7.1l-4.8-3.8-.6-.4-5-4-.5-.4-4.8-3.8a.5.5 0 0 1-.1-.7l3.5-4.4.4-.6 1.4-1.8.5-.5 1.4-1.8.5-.6 1.6-2c.2-.3.5-.3.7-.1l10.3 8 .6.6Zm-15-3 4.6 3.6-1.4 1.7-4.6-3.6 1.4-1.8ZM81 49.4l4.6 3.6-1.6 2-4.6-3.7 1.4-1.7Zm-2 2.4 4.6 3.7-1.5 1.8-4.6-3.6 1.5-1.9Z" clip-rule="evenodd"/>
  <path fill="#fff" stroke="#B7C2CE" stroke-width="1.2" d="M24.9 68.2a4.4 4.4 0 0 1 4.3-4.6h28.2c2.3 0 4.4-1.3 5.3-3.3a4.5 4.5 0 0 1 4.1-2.7h27c2 0 3.5 1.6 3.4 3.5l-1.6 37.1a5.4 5.4 0 0 1-5.4 5.2H31.7a5.4 5.4 0 0 1-5.4-5.1l-1.4-30Z"/>
  <circle cx="62.5" cy="95.5" r="14.9" fill="#DDE2E8" stroke="#778DA8" stroke-width="1.2"/>
  <mask id="b" width="17" height="17" x="54" y="87" fill="#000" maskUnits="userSpaceOnUse">
    <path fill="#fff" d="M54 87h17v17H54z"/>
    <path fill-rule="evenodd" d="M64 90.5a1.5 1.5 0 0 0-3 0V94h-3.5a1.5 1.5 0 0 0 0 3H61v3.5a1.5 1.5 0 0 0 3 0V97h3.5a1.5 1.5 0 0 0 0-3H64v-3.5Z" clip-rule="evenodd"/>
  </mask>
  <path fill="#fff" fill-rule="evenodd" d="M64 90.5a1.5 1.5 0 0 0-3 0V94h-3.5a1.5 1.5 0 0 0 0 3H61v3.5a1.5 1.5 0 0 0 3 0V97h3.5a1.5 1.5 0 0 0 0-3H64v-3.5Z" clip-rule="evenodd"/>
  <path fill="#778DA8" d="M61 94v1.2h1.2V94H61Zm0 3h1.2v-1.2H61V97Zm3 0v-1.2h-1.2V97H64Zm0-3h-1.2v1.2H64V94Zm-1.5-3.8.3.3h2.4c0-1.5-1.2-2.7-2.7-2.7v2.4Zm-.3.3.3-.3v-2.4a2.7 2.7 0 0 0-2.7 2.7h2.4Zm0 3.5v-3.5h-2.4V94h2.4Zm-4.7 1.2H61v-2.4h-3.5v2.4Zm-.3.3.3-.3v-2.4a2.7 2.7 0 0 0-2.7 2.7h2.4Zm.3.3a.3.3 0 0 1-.3-.3h-2.4c0 1.5 1.2 2.7 2.7 2.7v-2.4Zm3.5 0h-3.5v2.4H61v-2.4Zm1.2 4.7V97h-2.4v3.5h2.4Zm.3.3a.3.3 0 0 1-.3-.3h-2.4c0 1.5 1.2 2.7 2.7 2.7v-2.4Zm.3-.3-.3.3v2.4c1.5 0 2.7-1.2 2.7-2.7h-2.4Zm0-3.5v3.5h2.4V97h-2.4Zm4.7-1.2H64v2.4h3.5v-2.4Zm.3-.3-.3.3v2.4c1.5 0 2.7-1.2 2.7-2.7h-2.4Zm-.3-.3.3.3h2.4c0-1.5-1.2-2.7-2.7-2.7v2.4Zm-3.5 0h3.5v-2.4H64v2.4Zm-1.2-4.7V94h2.4v-3.5h-2.4Z" mask="url(#b)"/>
  <defs>
    <clipPath id="a">
      <path fill="#fff" d="M0 0h22v22H0z" transform="rotate(-27.9 104.3 -13)"/>
    </clipPath>
  </defs>
</svg>
